X:1
T:Braes of Dumblane -- Reel
R:reel
B:Ryan's Mammoth Collection
Z: Contributed by Ray Davies,  ray:davies99.freeserve.co.uk
M:2/4
L:1/16
K:G
vge|d2Bd efge|dBGB AGE2|d2Bd efgb|afdf g2((3gfe)|
d2Bd efge|dBGB AGE2|d2Bd efgb|afdf g2::
ud2|(g2{a}g)f gbag|fdad bdad|(g2{a}g)f gbag|fdef g2d2|
(g2{a}g)f gbag|fdad bdad|edeg fdfb|afdf g2:|
